X:1
T:In trouble and in thrall (Ps 120)
T:Giles Farnaby
T:Source : The Whole Book of Psalms---London---Musical Antiquarian Society---1844. First publication : London---Th.Est(e)---1592. Editor : André Vierendeels (13/09/16).
T:In trouble and in thrall (Ps 120)
T:©
C:Giles Farnaby
Z:©
%%score [ 1 2 3 4 ]
L:1/8
Q:1/4=120
M:4/4
K:F
V:1 treble nm="Soprano" snm="S"
V:2 treble nm="Alto" snm="A"
V:3 treble-8 nm="Tenor" snm="T"
V:4 bass nm="Bass" snm="B"
V:1
 c4 d2 f2 | e2 f2 f4 || f3 e d2 c2 | c2 =B2 c4 || c4 d2 c2 | f2 e2 d4 || f2 f4 e2 | d2 d2 e4 || %8
w: In trou- ble|and in thrall,|u- * to the|Lord I call,|and he doth|me com- fort,|de- li- ver|me I say,|
 f4 d2 _e2 | d3 c =B4 || _e4 d2 c2 | d3 c !fermata!A4 |] %12
w: from li- ars|lips al- way,|and tongue of|false re- port.|
V:2
 A4 F2 D2 | G2 B2 A4 || A4 B2 G2 | A2 G2 G4 || A4 B2 G2 | AF G2 G4 || A4 F2 G2 | A2 G2 G4 || %8
w: In trou- ble|and in thrall,|un- to the|Lord I call,|and he doth|me _ com- fort,|de- li- ver|me I say,|
 F4 B2 AG- | G^F/E/ F2 G4 || G3 C F2 F2- | F2 E2 !fermata!F4 |] %12
w: from li- ars lips|_ _ _ al- way,|and tongue of false|_ re- port.|
V:3
 F4 A2 B2 | c2 d2 c4 || c4 d2 e2 | f2 d2 e4 || c2 f4 e2 | d2 c2 =B4 || c2 d4 c2 | c2 =B2 c4 || %8
w: In trou- ble|and in thrall,|un- to the|Lord I call,|and he doth|me com- fort,|de- li- ver|me I say,|
 A2 d4 c2 | B2 A2 G4 || c4 B2 A2 | G2 G2 !fermata!F4 |] %12
w: from li- ars|lips al- way,|and tongue of|false re- port.|
V:4
 F,4 D,2 D,2 | C,2 B,,2 F,4 || F,4 B,,2 C,2 | F,2 G,2 C,4 || F,4 D,2 E,2 | F,2 C,2 G,4 || %6
 F,4 D,2 E,2 | F,2 G,2 C,4 || D,4 G,2 C,2 | D,2 D,2 G,4 || C,4 D,2 F,2 | B,,2 C,2 !fermata!F,4 |] %12

